X: 100112
M: C|
L: 1/8
K: D
uA, |\
(D>A)(F>A)  (B/A/B/c/) (d>B) | A<F(G>E) {FE}D2D :|
uA |\
(d>c) ([cE]>B) (B>A) ([AF]>F) | (G>e)(F>d) E>(A,C>A,) |\
(d>c) ([cD]>B) (B>A) (.[AF]>.g) | (3faf (3ece d2 (d>A) |
(d>c) ([cE]>B) (B>A) ([AF]>F) | (G>e) (F>d) E>(A,C>A,) |\


